X:1
T:Vals efter Anton Persson, Hjälmsa (i D)
M:3/4
L:1/8
Q:150  
K:D
O:Blekinge
R:Vals
A2 ff fg | f2 ed A2 | A2 FA BA | E4 B2 | A2 gg g2 | A2 ff f2 | e2 ge ce |1 ed fd A2 :|2 d4 A2 | 
|: AF Ad f2 | AF Ad f2 | e2 ce eg | aa ag f2 | AF Ad f2 | AF Ad f2 | e2ge ce | d6 :|

